X:183
T:Unknown Montreal Reel 2
S:Cafe Utopik, Montreal
Z:robin.beech@mcgill.ca
R:reel
M:4/4
L:1/8
K:A
|: aged egag | edeg agef | =gfd=c dfgf | d=cd=g fdcd |
aged egag | edeg agef | =g3a gfed |1 cBA2 A3e :|2 cBA2 A2BA |:
d3dd2 =g2- | =g2 =ga gfed | e2ef edcd | e2e=g fedc |
d3d d2=g2- | =g2=ga gfed | e2ef edcd |1 cBA2 A2BA :|2 cBA2 A3e |]
